X: 21532
T: Kilcooley Wood
R: hornpipe
M: 4/4
K: Gmajor
|:"G"DGGA BGcG|BGAF "Dsus"GABc|"G"dg g2 "G/B"fgag|"Am7"fdcA "Dsus"(3Bcd AF|
"G"DGGA BGcG|BGAF "C/G"GABc|"Dsus"dg g2 "G/B"fdcA|1 "Dsus"(3Bcd AF "G"G2GE:|2 "Dsus" (3Bcd AF "G"G2 (3ABc||
|:"G"dg g2 "C/G"fgaf|"Am"dgga "C/G"bgaf|"G/B"defg "C/G"abag|"Dsus"fdcA (3Bcd AF|
"G"DGGA BGcG|BGAF "Dsus"GABc|dg g2 "G/B"fdcA|1 "Dsus"(3Bcd AF "G"GABc:|2 "Dsus"(3Bcd AF "G"G2||

